img/feedback-text-decoration.svg

<svg width="21" height="23" viewBox="0 0 21 23" fill="none" xmlns="http://www.w3.org/2000/svg">
<path d="M3.012 22.0156C1.956 20.2636 1.248 18.4276 0.888 16.5076C0.528 14.5636 0.492 12.6436 0.78 10.7476C1.068 8.85163 1.68 7.03963 2.616 5.31163C3.576 3.58363 4.848 2.03563 6.432 0.667632L8.628 1.99963C9.012 2.26363 9.18 2.58763 9.132 2.97163C9.084 3.33163 8.952 3.63163 8.736 3.87163C8.16 4.59163 7.644 5.49163 7.188 6.57163C6.756 7.62763 6.468 8.77963 6.324 10.0276C6.18 11.2756 6.228 12.5716 6.468 13.9156C6.708 15.2596 7.212 16.5796 7.98 17.8756C8.316 18.4276 8.412 18.9196 8.268 19.3516C8.124 19.7836 7.812 20.0956 7.332 20.2876L3.012 22.0156ZM14.208 22.0156C13.152 20.2636 12.444 18.4276 12.084 16.5076C11.724 14.5636 11.688 12.6436 11.976 10.7476C12.264 8.85163 12.876 7.03963 13.812 5.31163C14.772 3.58363 16.044 2.03563 17.628 0.667632L19.824 1.99963C20.208 2.26363 20.376 2.58763 20.328 2.97163C20.28 3.33163 20.148 3.63163 19.932 3.87163C19.356 4.59163 18.84 5.49163 18.384 6.57163C17.952 7.62763 17.664 8.77963 17.52 10.0276C17.376 11.2756 17.424 12.5716 17.664 13.9156C17.904 15.2596 18.408 16.5796 19.176 17.8756C19.512 18.4276 19.608 18.9196 19.464 19.3516C19.32 19.7836 19.008 20.0956 18.528 20.2876L14.208 22.0156Z" fill="#FAC663"/>
</svg>

<svg width="21" height="23" fill="none" xmlns="http://www.w3.org/2000/svg"><path d="M3.012 22.016c-1.056-1.752-1.764-3.588-2.124-5.508a17.22 17.22 0 01-.108-5.76 16.56 16.56 0 011.836-5.436c.96-1.728 2.232-3.276 3.816-4.644L8.628 2c.384.264.552.588.504.972-.048.36-.18.66-.396.9-.576.72-1.092 1.62-1.548 2.7a13.03 13.03 0 00-.864 3.456 13.337 13.337 0 00.144 3.888c.24 1.344.744 2.664 1.512 3.96.336.552.432 1.044.288 1.476-.144.432-.456.744-.936.936l-4.32 1.728zm11.196 0c-1.056-1.752-1.764-3.588-2.124-5.508a17.22 17.22 0 01-.108-5.76 16.56 16.56 0 011.836-5.436c.96-1.728 2.232-3.276 3.816-4.644L19.824 2c.384.264.552.588.504.972-.048.36-.18.66-.396.9-.576.72-1.092 1.62-1.548 2.7a13.03 13.03 0 00-.864 3.456 13.337 13.337 0 00.144 3.888c.24 1.344.744 2.664 1.512 3.96.336.552.432 1.044.288 1.476-.144.432-.456.744-.936.936l-4.32 1.728z" fill="#FAC663"/></svg>
